X:570
T:Loch Tay Boat Song
Z:Jack Campin, http://www.campin.me.uk/
F:Jack Campin's Nine-Note Tunebook
% last edit 03-02-2013
M:3/4
L:1/4
Q:3/4=50
G:Waltz
K:D
D|F2E|D2F|A3|F2 D|d2c|B2G|A3 |F2
D|G2A|B2G|A3|F2 E|F2E|E2F|G2F|E2
D|F2E|D2F|A3|F2 D|d2c|B2G|A3 |F2
D|G2A|B2G|A3|F2 D|F2E|D2C|D3-|D2||
A|d2c|B2G|A3|F2 D|d2c|B2G|A3-|A2
D|d2c|B2G|A3|F2 G|F2E|E2F|G2F|E2
D|F2E|D2F|A3|F2 D|d2c|B2G|A3 |F2
D|G2A|B2G|A3|F2 D|F2E|D2C|D3-|D2|]

